assets/icon/stats/tichuAnnouncedWhen1stRate.svg

<svg id="Capa_1" enable-background="new 0 0 511.99 511.99" height="512" viewBox="0 0 511.99 511.99" width="512" xmlns="http://www.w3.org/2000/svg"><g><path d="m342.687 114.689c-3.54-2.151-8.154-1.024-10.304 2.517s-1.023 8.154 2.517 10.304c40.969 24.882 65.428 68.317 65.428 116.188 0 4.142 3.357 7.5 7.5 7.5s7.5-3.358 7.5-7.5c-.001-54.139-28.67-102.303-72.641-129.009z"/><path d="m362.847 50.766c4.321 8.413 16.601 8.426 20.929-.002 2.564-4.998 6.732-9.156 11.737-11.708 8.43-4.3 8.486-16.521-.034-20.881-5.025-2.57-9.2-6.754-11.758-11.782-4.333-8.521-16.485-8.525-20.82 0-2.558 5.027-6.733 9.211-11.76 11.783-8.527 4.364-8.452 16.586-.032 20.88 5.004 2.552 9.173 6.711 11.738 11.71zm10.464-32.641c2.849 4.079 6.424 7.652 10.506 10.5-4.082 2.849-7.658 6.425-10.506 10.507-2.849-4.082-6.424-7.658-10.507-10.507 4.083-2.848 7.658-6.421 10.507-10.5z"/><path d="m59.307 364.36c-2.556 5.026-6.731 9.21-11.756 11.781-8.531 4.364-8.455 16.589-.034 20.881 5.004 2.552 9.173 6.71 11.738 11.71 4.321 8.415 16.606 8.428 20.928-.001 2.564-4.998 6.733-9.156 11.738-11.708 8.429-4.3 8.487-16.523-.035-20.881h.001c-5.026-2.571-9.201-6.755-11.758-11.782-4.333-8.522-16.485-8.526-20.822 0zm20.918 22.231c-4.082 2.849-7.657 6.424-10.506 10.507-2.849-4.082-6.424-7.658-10.506-10.507 4.082-2.848 7.657-6.421 10.506-10.5 2.849 4.08 6.423 7.653 10.506 10.5z"/><path d="m443.634 120.962c4.787 9.321 18.433 9.333 23.227-.002 3.558-6.933 9.34-12.701 16.281-16.242 9.337-4.761 9.402-18.328-.045-23.16-6.972-3.567-12.764-9.371-16.311-16.346-4.808-9.448-18.268-9.452-23.08.001-3.546 6.974-9.338 12.778-16.309 16.344-9.446 4.832-9.386 18.398-.046 23.161 6.942 3.54 12.724 9.308 16.283 16.244zm11.613-45.657c4.396 7.269 10.58 13.45 17.855 17.844-7.275 4.397-13.462 10.584-17.856 17.858-4.395-7.275-10.581-13.462-17.854-17.858 7.274-4.394 13.459-10.575 17.855-17.844z"/><path d="m40.942 291.323c-4.143 0-7.5 3.358-7.5 7.5v4.116h-4.115c-4.143 0-7.5 3.358-7.5 7.5s3.357 7.5 7.5 7.5h4.115v4.116c0 4.142 3.357 7.5 7.5 7.5s7.5-3.358 7.5-7.5v-4.116h4.116c4.143 0 7.5-3.358 7.5-7.5s-3.357-7.5-7.5-7.5h-4.116v-4.116c0-4.142-3.358-7.5-7.5-7.5z"/><path d="m78.268 244.342c0 54.937 24.347 106.874 65.88 142.097-4.596 3.142-7.621 8.422-7.621 14.398v11.694c-8.496 1.579-14.953 9.034-14.953 17.981v37.748c-8.921.754-15.954 8.244-15.954 17.358v8.939c0 9.613 7.82 17.433 17.433 17.433h123.939c4.143 0 7.5-3.358 7.5-7.5s-3.357-7.5-7.5-7.5h-123.94c-1.342 0-2.433-1.091-2.433-2.433v-8.939c0-1.341 1.091-2.433 2.433-2.433h282.88c1.342 0 2.433 1.091 2.433 2.433v8.939c0 1.342-1.091 2.433-2.433 2.433h-123.94c-4.143 0-7.5 3.358-7.5 7.5s3.357 7.5 7.5 7.5h123.94c9.612 0 17.433-7.82 17.433-17.433v-8.939c0-9.113-7.033-16.603-15.954-17.358v-37.748c0-8.947-6.457-16.401-14.953-17.981v-11.694c0-5.977-3.026-11.258-7.624-14.4 37.063-31.375 60.513-75.888 65.065-124.541.386-4.124-2.645-7.78-6.77-8.166-4.101-.384-7.779 2.645-8.166 6.769-4.608 49.261-30.286 93.922-70.571 122.905h-199.801c-44.703-32.176-71.323-83.983-71.323-139.063 0-94.413 76.811-171.224 171.224-171.224 88.273 0 161.508 66.133 170.352 153.832.415 4.121 4.076 7.121 8.215 6.71 4.121-.416 7.125-4.094 6.709-8.215-9.512-94.335-89.165-167.327-185.275-167.327-102.685.001-186.225 83.541-186.225 186.225zm58.305 223.843v-37.673c0-1.79 1.512-3.302 3.302-3.302h249.233c1.79 0 3.302 1.512 3.302 3.302v37.673zm238.452-69.781c1.342 0 2.433 1.091 2.433 2.433v11.373h-225.932v-11.373c0-1.341 1.091-2.433 2.433-2.433z"/></g></svg>

<?xml version="1.0" encoding="UTF-8" standalone="no"?>
<!DOCTYPE svg PUBLIC "-//W3C//DTD SVG 1.1//EN" "http://www.w3.org/Graphics/SVG/1.1/DTD/svg11.dtd">
<svg width="100%" height="100%" viewBox="0 0 512 512" version="1.1" xmlns="http://www.w3.org/2000/svg" xmlns:xlink="http://www.w3.org/1999/xlink" xml:space="preserve" xmlns:serif="http://www.serif.com/" style="fill-rule:evenodd;clip-rule:evenodd;stroke-linejoin:round;stroke-miterlimit:2;">
    <g>
        <path d="M342.694,114.691C339.154,112.54 334.54,113.667 332.389,117.208C330.239,120.749 331.366,125.362 334.907,127.512C375.876,152.395 400.336,195.831 400.336,243.703C400.336,247.845 403.693,251.203 407.836,251.203C411.979,251.203 415.336,247.845 415.336,243.703C415.335,189.563 386.666,141.398 342.694,114.691Z" style="fill:white;fill-rule:nonzero;"/>
        <path d="M362.854,50.767C367.175,59.18 379.455,59.193 383.783,50.765C386.348,45.767 390.516,41.609 395.521,39.057C403.951,34.757 404.007,22.535 395.487,18.175C390.462,15.605 386.287,11.421 383.728,6.393C379.395,-2.128 367.243,-2.132 362.908,6.393C360.35,11.42 356.175,15.604 351.148,18.176C342.621,22.54 342.696,34.763 351.116,39.057C356.12,41.609 360.289,45.768 362.854,50.767ZM373.318,18.125C376.167,22.204 379.742,25.778 383.824,28.626C379.742,31.475 376.166,35.051 373.318,39.133C370.469,35.051 366.894,31.475 362.811,28.626C366.894,25.778 370.469,22.204 373.318,18.125Z" style="fill:white;fill-rule:nonzero;"/>
        <path d="M59.308,364.367C56.752,369.393 52.577,373.577 47.552,376.148C39.021,380.512 39.097,392.738 47.518,397.03C52.522,399.582 56.691,403.74 59.256,408.74C63.577,417.155 75.862,417.168 80.185,408.739C82.749,403.741 86.918,399.583 91.923,397.031C100.352,392.731 100.41,380.507 91.888,376.149L91.889,376.149C86.863,373.578 82.688,369.394 80.131,364.367C75.797,355.845 63.645,355.841 59.308,364.367ZM80.227,386.599C76.144,389.448 72.569,393.023 69.72,397.106C66.871,393.024 63.296,389.448 59.214,386.599C63.296,383.75 66.871,380.177 69.72,376.098C72.569,380.178 76.143,383.751 80.227,386.599Z" style="fill:white;fill-rule:nonzero;"/>
        <path d="M443.643,120.964C448.43,130.286 462.076,130.298 466.87,120.962C470.428,114.029 476.21,108.261 483.151,104.72C492.489,99.959 492.554,86.392 483.106,81.56C476.134,77.993 470.342,72.188 466.795,65.213C461.987,55.765 448.527,55.761 443.715,65.214C440.169,72.188 434.376,77.993 427.405,81.559C417.959,86.391 418.019,99.957 427.359,104.72C434.301,108.26 440.084,114.028 443.643,120.964ZM455.256,75.306C459.652,82.576 465.836,88.757 473.111,93.151C465.836,97.548 459.649,103.735 455.255,111.009C450.86,103.734 444.674,97.547 437.401,93.151C444.675,88.757 450.86,82.576 455.256,75.306Z" style="fill:white;fill-rule:nonzero;"/>
        <path d="M40.943,291.329C36.8,291.329 33.443,294.687 33.443,298.829L33.443,302.945L29.328,302.945C25.184,302.945 21.827,306.303 21.827,310.445C21.827,314.587 25.184,317.945 29.328,317.945L33.443,317.945L33.443,322.061C33.443,326.203 36.8,329.561 40.943,329.561C45.086,329.561 48.443,326.203 48.443,322.061L48.443,317.945L52.559,317.945C56.702,317.945 60.059,314.587 60.059,310.445C60.059,306.303 56.702,302.945 52.559,302.945L48.443,302.945L48.443,298.829C48.443,294.687 45.085,291.329 40.943,291.329Z" style="fill:white;fill-rule:nonzero;"/>
        <path d="M78.27,244.347C78.27,299.285 102.617,351.223 144.151,386.447C139.555,389.589 136.53,394.869 136.53,400.845L136.53,412.539C128.034,414.118 121.576,421.573 121.576,430.52L121.576,468.269C112.655,469.023 105.622,476.513 105.622,485.627L105.622,494.567C105.622,504.18 113.442,512 123.055,512L246.997,512C251.14,512 254.497,508.642 254.497,504.5C254.497,500.358 251.14,497 246.997,497L123.054,497C121.712,497 120.621,495.909 120.621,494.567L120.621,485.627C120.621,484.286 121.712,483.194 123.054,483.194L405.94,483.194C407.282,483.194 408.373,484.285 408.373,485.627L408.373,494.567C408.373,495.909 407.282,497 405.94,497L281.998,497C277.854,497 274.497,500.358 274.497,504.5C274.497,508.642 277.854,512 281.998,512L405.94,512C415.552,512 423.373,504.18 423.373,494.567L423.373,485.627C423.373,476.514 416.34,469.024 407.419,468.269L407.419,430.52C407.419,421.573 400.962,414.119 392.466,412.539L392.466,400.845C392.466,394.868 389.44,389.587 384.842,386.445C421.905,355.069 445.356,310.555 449.908,261.901C450.294,257.777 447.263,254.121 443.138,253.735C439.037,253.351 435.359,256.38 434.971,260.504C430.363,309.766 404.685,354.428 364.399,383.411L164.594,383.411C119.89,351.235 93.27,299.427 93.27,244.346C93.27,149.931 170.082,73.118 264.497,73.118C352.772,73.118 426.008,139.253 434.852,226.953C435.268,231.075 438.929,234.075 443.068,233.664C447.189,233.248 450.193,229.569 449.777,225.448C440.265,131.112 360.61,58.118 264.498,58.118C161.811,58.119 78.27,141.661 78.27,244.347ZM136.576,468.194L136.576,430.52C136.576,428.73 138.088,427.218 139.878,427.218L389.116,427.218C390.906,427.218 392.418,428.73 392.418,430.52L392.418,468.194L136.576,468.194ZM375.032,398.412C376.374,398.412 377.465,399.503 377.465,400.845L377.465,412.218L151.529,412.218L151.529,400.845C151.529,399.504 152.62,398.412 153.962,398.412L375.032,398.412Z" style="fill:white;fill-rule:nonzero;"/>
    </g>
</svg>
